!!!COM: Music21
!!!OTL: Pasacalles
!!!OMV: pezas_pasacorredoiras_pasacalles-4_pasacalles-partitura.musicxml
**kern
*I"Bagpipes
*I'Bag
*clefG^2
*k[]
*M2/4
=1
!LO:TX:a:t=Andante
*MM96
!LO:TX:a:t=[quarter]=96
4r
8cccL
16cccL
16bbJJ
=||
8dddL
16ddL
16eeJJ
8ffL
16ffL
16eeJJ
=
4aaT
8eeL
16eeL
16ddJJ
=
8ffL
16ddL
16bJJ
8ddL
16ddL
16ccJJ
=
4ggT
8cccL
16cccL
16bbJJ
=
8dddL
16ddL
16eeJJ
8ffL
16ffL
16eeJJ
=
4aaT
8eeL
16eeL
16ddJJ
!!linebreak:original
=
8ffL
16eeL
16ffJJ
8eeL
16ddL
16eeJJ
=
4cc
8cccL
16cccL
16bbJJ
=||
8dddL
16ddL
16eeJJ
8ffL
16ffL
16eeJJ
=
4aaT
8eeL
16eeL
16ddJJ
=
8ffL
16ddL
16bJJ
8ddL
16ddL
16ccJJ
=
4ggT
8cccL
16cccL
16bbJJ
=
8dddL
16ddL
16eeJJ
8ffL
16ffL
16eeJJ
=
4aaT
8eeL
16eeL
16ddJJ
!!linebreak:original
=
8ffL
16eeL
16ffJJ
8eeL
16ddL
16eeJJ
=
4cc
8eeL
16eeL
16ddJJ
=||
8ccL
8ddJ
8eeL
16eeL
16ffJJ
=
4ddT
8ffL
16ffL
16eeJJ
=
8ddL
16eeL
16ffJJ
8ggL
16ddL
16ffJJ
=
4eet
8eeL
16eeL
16ddJJ
!!linebreak:original
=
8ccL
16ccL
16ddJJ
8eeL
16eeL
16ffJJ
=
4ddT
8ffL
16eeL
16ffJJ
=
8eeL
16ddL
16eeJJ
8ddL
16ccL
16ddJJ
=
4cc
8eeL
16eeL
16ddJJ
=||
8ccL
8ddJ
8eeL
16eeL
16ffJJ
=
4ddT
8ffL
16ffL
16eeJJ
=
8ddL
16eeL
16ffJJ
8ggL
16ddL
16ffJJ
=
4eet
8eeL
16eeL
16ddJJ
!!linebreak:original
=
8ccL
16ccL
16ddJJ
8eeL
16eeL
16ffJJ
=
4ddT
8ffL
16eeL
16ffJJ
=
8eeL
16ddL
16eeJJ
8ddL
16ccL
16ddJJ
=
4cc
4r
==
*-
